X:1
T:Manassa Junction
M:3/4
L:1/8
K:G
 DGG| B2 BA GD| E3G/2-A/2 BB| B3 GB A-| A2 z BB B| d3| Bdd| D2 z2 E2|\
 B3 AG D| E G2||
